X:121
T: ES REGNET AUF DER BRUECKE
N: K2170
O: Europa, Mitteleuropa, Deutschland, Sachsen
R: Kinder - Lied, Reigen, Tanz - Spiel, Brautwerbung
M: 2/4
L: 1/8
K: F
C | FGAB | c2A
A | B2c2 | A2z
C | FGAB | c2A
A | B2c2 | A2z
c | BBGG | AAA
c | BBGG | AAA2 |
B2G2 | A2F2 |
BBGG | A2F2 |
FGAB | c2z
d | cBAG | F2z

@@@ Tune index: 7458
